svg/300/outlined/rotate_left-fill.svg

<svg xmlns="http://www.w3.org/2000/svg" width="48" height="48" viewBox="0 -960 960 960"><path d="M436.539-100.001q-45.308-7-87.231-23.847-41.923-16.846-78.845-44.538l32.614-33.23q31.616 23.231 65.039 36.731t68.423 19.115v45.769Zm87.307 0V-145q108.077-20.231 179.423-101.769 71.346-81.539 71.346-195.077 0-123.923-85.154-209.269T480-736.461h-28.462l85.154 85.154-33.23 33.23-141.076-141.076 141.076-140.691 33.23 32.845-85.154 85.154H480q70.769 0 132.615 26.654 61.846 26.654 108.153 72.769 46.308 46.115 72.769 108.153 26.462 62.039 26.462 132.423 0 131.538-83.808 227.153-83.807 95.615-212.345 114.692ZM209.77-229.463q-26.461-35.692-43.807-78.73-17.346-43.038-23.962-89.807H188q5.385 37.231 18.885 71.461 13.5 34.231 36.115 63.846l-33.23 33.23Zm-67.769-255.844q6.616-47.308 23.847-89.539 17.23-42.23 43.922-78.384L243-620.615q-22.615 31.846-36.115 66.077-13.5 34.231-18.885 69.231h-45.999Z"/></svg>

<svg xmlns="http://www.w3.org/2000/svg" width="48" height="48" viewBox="0 -960 960 960"><path d="M436.54-100q-45.31-7-87.23-23.85-41.92-16.84-78.85-44.54l32.62-33.23q31.61 23.23 65.04 36.73 33.42 13.5 68.42 19.12V-100Zm87.31 0v-45q108.07-20.23 179.42-101.77 71.34-81.54 71.34-195.08 0-123.92-85.15-209.26-85.15-85.35-209.46-85.35h-28.46l85.15 85.15-33.23 33.23-141.07-141.07 141.07-140.69L536.69-867l-85.15 85.16H480q70.77 0 132.61 26.65 61.85 26.65 108.16 72.77 46.31 46.11 72.77 108.15Q820-512.23 820-441.85q0 131.54-83.81 227.16Q652.38-119.08 523.85-100ZM209.77-229.46q-26.46-35.69-43.81-78.73Q148.62-351.23 142-398h46q5.39 37.23 18.89 71.46T243-262.69l-33.23 33.23ZM142-485.31q6.62-47.3 23.85-89.54 17.23-42.23 43.92-78.38L243-620.61q-22.61 31.84-36.11 66.07-13.5 34.23-18.89 69.23h-46Z"/></svg>
